X:1
T:Elite Syncopations
T:ELITE  SYNCOPATIONS.
T:By SCOTT JOPLIN.
T:Public Domain
T:Public Domain
T:Public Domain
T:Public Domain
C:Scott Joplin
Z:Public Domain
%%score { ( 1 3 ) | ( 2 4 ) }
L:1/8
Q:1/4=72
M:2/4
K:F
V:1 treble nm="Piano"
V:3 treble 
V:2 bass 
V:4 bass 
V:1
"^Not fast." c'/a/g/f/- f/a/g/f/ | g/f/d/c/- c/F/G/A/ | C/GF/ EG | [EGc] z/ C/ z/ D/z/E/ |: %4
 z/ F/d/[FAc]/- [FAc]/d/[^DAc] | z/ E/d/[EBc]/- [EBc]/d/[EBc] | %6
 z/ [FAc]/z/[Ac]/ z/ [_A_c]/z/[GB]/ | F_A [Gce][Beg] | [Afa]/^g/a/c'/- c'/a/=g/f/ | %9
 g/f/d/f/- f/d/c/A/ | G/g/f/e/ d/A=B/ | c z [cec'] z | z/ F/d/[FAc]/- [FAc]/d/[^DAc] | %13
 z/ E/d/[EBc]/- [EBc]/d/[EBc] | z/ [FAc]/z/[Ac]/ z/ [_A_c]/z/[GB]/ | F_A [Gce][Beg] | %16
 [Afa]/^g/a/c'/- c'/a/=g/f/ | g/f/d/c/- c/d/A/G/ | [=B,F]/G/[B,FA] [_B,EG]/[B,EG][B,C]/ |1 %19
 [A,F] z/ C/ z/ D/z/E/ :|2 [A,F] c/c/ cc |: e/d/c/B/ A/BG/ | F/G/A/C/- C/A/G/F/ | %23
 E/F/G/C/- C/B/A/G/ | F/A/d/c/- cc | e/d/c/B/ A/BE/ | F/E/F/A/- A/A/G/F/ | E/c/=B/A/ ^G/BE/ | %28
 A z [EBc]2 | e/d/c/B/ A/BG/ | F/G/A/C/- C/A/G/F/ | E/F/G/C/- C/B/A/G/ | F/A/d/c/- cc | %33
 [Bd]/g[Bd]/- [Bd]/g/[Bd] | [Ac]/f[Ac]/- [Ac]/f/[Ac] | B/G/d/c/- c/B/E |1 Fc/c/ cc :|2 %37
 F z/ C/ z/ D/z/E/ || z/ F/d/[FAc]/- [FAc]/d/[^DAc] | z/ E/d/[EBc]/- [EBc]/d/[EBc] | %40
 z/ [FAc]/z/[Ac]/ z/ [_A_c]/z/[GB]/ | F_A [Gce][Beg] | [Afa]/^g/a/c'/- c'/a/=g/f/ | %43
 g/f/d/f/- f/d/c/A/ | G/g/f/e/ d/A=B/ | c z [cec'] z | z/ F/d/[FAc]/- [FAc]/d/[^DAc] | %47
 z/ E/d/[EBc]/- [EBc]/d/[EBc] | z/ [FAc]/z/[Ac]/ z/ [_A_c]/z/[GB]/ | F_A [Gce][Beg] | %50
 [Afa]/^g/a/c'/- c'/a/=g/f/ | g/f/d/c/- c/d/A/G/ | [=B,F]/G/[B,FA] [_B,EG]/[B,EG][B,C]/ | %53
 [A,F] z [A_ef]2 |:[K:Bb] [Bd]/g/f/e/ d/c/B/d/ | c/B/G/F/- F/bg/ | f/g/f/d/ B/c/d/[Ac]/- | %57
 [Ac]3 F | d/g/f/e/ d/e/d/c/ | B/A/G/B/- B/d/c/B/ | A/d/f/a/ g/f=e/ | d z [A_ef]2 | %62
 [Bd]/g/f/e/ d/c/B/d/ | c/B/G/F/- F/bg/ | f/g/f/d/ B/c/d/[Ac]/- | [Ac]3 F | d/^c/d/e/ f/=e/f/^f/ | %67
 g/^f/g/b/- b/b/a/g/ | f/d'/b/f/ g/e/c/A/ |1 B=E/F/ G/A/B/c/ :|2 B3 z/ [Bb]/- |: %71
 [Bb]/e/[cc']/e/ g/[Bb]e/ | [cc']/e/g/[Bb]/- [Bb]/[cc'][Bb]/ | [Ff]/B/[Gg]/B/ d/[Ff]B/ | %74
 [Gg]/B/d/[Ff]/- [Ff]/[Gg]B/ | [Ff]/A/[Gg]/A/ c/[Ff]A/ | [Gg]/A/c/[Ff]/- [Ff]/[Gg]A/ | %77
 [Ff]/B/[Gg]/B/ d/[Ff]B/ | [Gg]/B/d/[Ff]/- [Ff]/[Ff][Bb]/- | [Bb]/e/[cc']/e/ g/[Bb]e/ | %80
 [cc']/e/g/[Bb]/- [Bb]/[cc'][Bb]/ | [Ff]/B/[Gg]/B/ d/[Ff]B/ | [Gg]/B/d/[Ff]/- [Ff]/[Ff][=E_d]/- | %83
 [Ed]/B/[=E_d]/B/ c/[Ed]B/ | [F=d]/B/c/[Fd]/- [Fd]/[Fd][Ff]/- | [Ff]/c/[Gg]/c/ e/[Aa][Bb]/- |1 %86
 [Bb]2 z3/2 (([Bb]/- :|2 [Bb]2)) [Bdb] z |] %88
V:2
[I:staff -1] c/A/G/F/- F/A/G/F/ | G/F/D/C/- C/[I:staff +1]F,/G,/A,/ | C,/G,F,/ E,G, | %3
 C [C,,C,][D,,D,][E,,E,] |: [F,,F,]3 [^F,,^F,] | [G,,G,]3 [^G,,^G,] | [A,,A,][_E,_E] [D,D][_D,_D] | %7
 [C,C][=B,,=B,] [_B,,_B,][C,,C,] | F,,[A,CF] A,,[A,CF] | B,,[B,DF] A,,[A,CF] | %10
 =B,,[G,=B,F] G,,[G,B,F] | [CE] z [C,C][C,,C,] | [F,,F,]3 [^F,,^F,] | [G,,G,]3 [^G,,^G,] | %14
 [A,,A,][_E,_E] [D,D][_D,_D] | [C,C][=B,,=B,] [_B,,_B,][C,,C,] | F,,[A,CF] A,,[A,CF] | %17
 B,,[B,DF] A,,[A,CF] | [D,,D,][D,,D,] [C,,C,][E,,E,] |1 [F,,F,] [C,,C,][D,,D,][E,,E,] :|2 %20
 [F,,F,] z z2 |: G,[B,CE] C,[B,CE] | F,[A,C] C,[A,C] | G,[B,C] C,[B,C] | F,[A,C] A,[CF] | %25
 G,[B,CE] E,[G,B,^C] | D,[F,A,D] D,[F,A,D] | E,[A,C] E,[^G,D] | [A,C] z [C,C]2 | %29
 G,[B,CE] C,[B,CE] | F,[A,C] C,[A,C] | G,[B,C] C,[B,C] | F,[A,C] C,[A,C] | B,,[G,B,D] B,,[G,B,D] | %34
 C,[A,C] C,[A,C] | C,[B,CE] C,[G,B,C] |1 [F,A,C]"^repeat 8va" z z2 :|2 %37
 [F,A,C] [C,,C,][D,,D,][E,,E,] || [F,,F,]3 [^F,,^F,] | [G,,G,]3 [^G,,^G,] | %40
 [A,,A,][_E,_E] [D,D][_D,_D] | [C,C][=B,,=B,] [_B,,_B,][C,,C,] | F,,[A,CF] A,,[A,CF] | %43
 B,,[B,DF] A,,[A,CF] | =B,,[G,=B,F] G,,[G,B,F] | [CE] z [C,C][C,,C,] | [F,,F,]3 [^F,,^F,] | %47
 [G,,G,]3 [^G,,^G,] | [A,,A,][_E,_E] [D,D][_D,_D] | [C,C][=B,,=B,] [_B,,_B,][C,,C,] | %50
 F,,[A,CF] A,,[A,CF] | B,,[B,DF] A,,[A,CF] | [D,,D,][D,,D,] [C,,C,][E,,E,] | [F,,F,] z [F,,F,]2 |: %54
[K:Bb] B,,[F,B,D] D,[F,B,D] | E,[G,B,E] D,[F,B,D] | B,,[F,B,D] C,[B,C=E] | %57
 [F,A,_E][F,,F,] [G,,G,][A,,A,] | [B,,B,][F,B,D] D,[^F,CD] | G,[B,D] G,[B,D] | A,[DF] A,[^CG] | %61
 [DF] z [F,,F,]2 | [B,,,B,,][F,B,D] D,[F,B,D] | E,[G,B,E] D,[F,B,D] | B,,[F,B,D] C,[B,C=E] | %65
 [F,A,_E][F,,F,] [G,,G,][A,,A,] | [B,,B,][F,B,D] D,[F,B,D] | E,[G,B,E] =E,[G,B,^C] | %68
 F,[B,D] F,,[F,A,E] |1 [B,D] z z2 :|2 B,[B,,,B,,] [C,,C,][D,,D,] |: [E,,E,][G,B,E] [G,B,E][D,,D,] | %72
 [E,,E,][F,,F,] [G,,G,][A,,A,] | [B,,B,][F,B,D] [F,B,D][^C,^C] | [D,D][F,B,D] [F,B,D][F,,F,] | %75
 [C,C][F,A,E] [F,A,E][F,,F,] | [C,C][F,A,E] [C,C][^C,^C] | [D,D][F,B,D] [F,B,D][F,,F,] | %78
 [B,,B,][F,B,D] [F,B,D][D,,D,] | [E,,E,][G,B,E] [G,B,E][D,,D,] | [E,,E,][F,,F,] [G,,G,][A,,A,] | %81
 [B,,B,][F,B,D] F,,[F,B,D] | B,,[F,B,D] F,,[F,B,D] | [_G,,_G,][_D,_D] [B,,B,][G,,G,] | %84
 [F,,F,][=D,=D] [B,,B,][F,,F,] | [C,C][F,A,E] [F,,F,][F,A,E] |1 D2 [C,,C,][D,,D,] :|2 %87
 B,[F,,F,] [B,,,B,,] z |] %88
V:3
 x4 | x4 | x4 | x4 |: x4 | x4 | x4 | A/c/d/f/ x2 | x4 | x4 | x4 | x4 | x4 | x4 | x4 | A/c/d/f/ x2 | %16
 x4 | x4 | x4 |1 x4 :|2 x4 |: x4 | x4 | x4 | x4 | x4 | x4 | x4 | x4 | x4 | x4 | x4 | x4 | x4 | x4 | %35
 x4 |1 x4 :|2 x4 || x4 | x4 | x4 | A/c/d/f/ x2 | x4 | x4 | x4 | x4 | x4 | x4 | x4 | A/c/d/f/ x2 | %50
 x4 | x4 | x4 | x4 |:[K:Bb] x4 | x4 | x4 | x4 | x4 | x4 | x4 | x4 | x4 | x4 | x4 | x4 | x4 | x4 | %68
 x4 |1 x4 :|2 x4 |: x4 | x4 | x4 | x4 | x4 | x4 | x4 | x4 | x4 | x4 | x4 | x4 | x4 | x4 | x4 |1 %86
 x4 :|2 x4 |] %88
V:4
 x4 | x4 | x4 | x4 |: x4 | x4 | x4 | x4 | x4 | x4 | x4 | x4 | x4 | x4 | x4 | x4 | x4 | x4 | x4 |1 %19
 x4 :|2 x4 |: x4 | x4 | x4 | x4 | x4 | x4 | x4 | x4 | x4 | x4 | x4 | x4 | x4 | x4 | x4 |1 x4 :|2 %37
 x4 || x4 | x4 | x4 | x4 | x4 | x4 | x4 | x4 | x4 | x4 | x4 | x4 | x4 | x4 | x4 | x4 |:[K:Bb] x4 | %55
 x4 | x4 | x4 | x4 | x4 | x4 | x4 | x4 | x4 | x4 | x4 | x4 | x4 | x4 |1 x4 :|2 D2 x2 |: x4 | x4 | %73
 x4 | x4 | x4 | x4 | x4 | x4 | x4 | x4 | x4 | x4 | x4 | x4 | x4 |1 B,[B,,,B,,] x2 :|2 D2 x x |] %88

